assets/img/index/sixteen.svg

<svg width="35" height="31" viewBox="0 0 35 31" fill="none" xmlns="http://www.w3.org/2000/svg">
<path fill-rule="evenodd" clip-rule="evenodd" d="M2.8162 15.219L17.5157 30.5017L32.2154 15.219C35.5732 11.7278 35.5411 6.20655 32.1424 2.75467C28.6265 -0.816436 22.8576 -0.816436 19.3416 2.75467L17.5157 4.60916L15.6899 2.75467C12.1739 -0.816436 6.40498 -0.816436 2.88906 2.75467C-0.509486 6.20655 -0.54176 11.7278 2.8162 15.219ZM24.7929 13.594C22.7661 13.494 21.0478 12.7109 19.638 11.2446C18.2283 9.77841 17.5235 8.02943 17.5235 5.99774C17.5235 8.02943 16.8161 9.77841 15.4013 11.2446C13.9865 12.7109 12.2657 13.494 10.2389 13.594C11.5733 13.6541 12.7975 14.0319 13.9113 14.7275C15.025 15.4231 15.9055 16.3438 16.5526 17.4899C17.1999 18.6358 17.5235 19.8793 17.5235 21.2205C17.5235 19.1788 18.2283 17.4223 19.638 15.9511C21.0478 14.4798 22.7661 13.6942 24.7929 13.594Z" fill="#1F2326"/>
</svg>

<svg width="35" height="31" fill="none" xmlns="http://www.w3.org/2000/svg"><path fill-rule="evenodd" clip-rule="evenodd" d="M2.816 15.219l14.7 15.283 14.7-15.283a8.932 8.932 0 00-.074-12.464c-3.516-3.571-9.284-3.571-12.8 0l-1.826 1.854-1.826-1.854c-3.516-3.571-9.285-3.571-12.8 0a8.932 8.932 0 00-.074 12.464zm21.977-1.625c-2.027-.1-3.745-.883-5.155-2.35-1.41-1.466-2.115-3.215-2.115-5.246 0 2.031-.707 3.78-2.122 5.247-1.415 1.466-3.135 2.249-5.162 2.349a7.45 7.45 0 013.672 1.133 7.629 7.629 0 012.642 2.763c.647 1.146.97 2.39.97 3.73 0-2.041.705-3.798 2.115-5.269 1.41-1.471 3.128-2.257 5.155-2.357z" fill="#1F2326"/></svg>
